X:861
T:Drops of brandy
R:Slip Jig
O:Ireland
B:Kerr's Second p26
S:My arrangement from various sources
Z:Transcription, arrangement, chords:Mike Long
M:9/8
L:1/8
K:G
"G"d2c BGB BGB|"G"d2c BGB "D"cBA|\
"G"d2c BGB BGB|"C"cBc A2B "D"cBA:|
|:"G"GBd gdB gdB|GBd gdB "D"cBA|\
"G"GBd gag gdB|"C"cBc A2B "D"cBA:|
